X:430
T:
S:Ur handl. Aug Nybergs samling, Klintehamn.
R:vals
O:Gotland, Klintehamn
M:3/4
L:1/8
K:C
g4 e2|f4 d2|cdcBce|d4 G2|c2 c2 cB|A2 A2 fd|B2 B2 dB|c4 z2:|
|:f4 d2|e2 c2 G2|f4 d2|e2 c2 G2|cBcdef|g2 g2 ^g2|a4 =fd|1 c4 z2:|2 c4
|:gf|e2 e2 e2|e4 g2|f2 fefg|f4 fe|d2 d2 d2|d4 fd|g2 f2 B2|c4:|
|:g2|g2 d2 d2|d4 g2|g2 e2 e2|e4 g2|g2 f2 d2|f2 e2 c2|d2 c2 B2|1 c4:|2 c6|]

